X:1
T:Limburg, 10.9.10.9 D
T:Limburg, 10.9.10.9 D
T:Clarence E. Hunter, 1907
T:Public Domain Courtesy of the Cyber Hymnal™
C:Clarence E. Hunter, 1907
Z:Public Domain
Z:Courtesy of the Cyber Hymnal™
%%score ( 1 2 ) ( 3 4 )
L:1/8
Q:1/4=95
M:4/4
K:Bb
V:1 treble 
V:2 treble 
V:3 bass 
V:4 bass 
V:1
 [DF][DB] | [Fd]2 [Fd][Fd] [Fd]2 [Fc][FB] | [EG] [GB]3- [GB]2 [EG][EG] | %3
 [DF]2 [FB][Fc] [Fd]2 [Fc][=EB] | [Fc]6 [Fd][Fe] | [Ff]2 [Fd][Ec] [DB]2 FF | %6
 [EG] [GB]3- [GB]2 [GB][EG] | [DF]2 [DF][DB] [EA]2 [DB][Ec] | [DB]6 [FA][FB] | %9
 [Fc]2 [Fc][Fc] (ce)[Fd][Ec] | [DB]4 [DF]2 [FB][Fc] | [Fd]2 [Fd][Fd] ([Fd][Ec])[DB][Fd] | %12
 [Fc]6 [Fd][Fc] | [FB]2 [FB][FB] [FB]2 [Fc][_Ad][Ge] [EG]3- [EG]2 [GB][Gc] | %14
 [Fd]2 [Fe][Fe] (dc)[FB][FA] | [FB]6 x2 |] x6 |] %17
V:2
 x2 | x8 | x8 | x8 | x8 | x6 FF | x8 | x8 | x8 | x4 F2 x2 | x8 | x8 | x8 | x16 | x4 F2 x2 | x8 |] %16
 x6 |] %17
V:3
 [B,,B,][B,,B,] | [B,,B,]2 [B,,B,][B,,B,] [B,,B,]2 [C,A,][D,B,] | %2
 [E,B,] [E,B,]3- [E,B,]2 [E,B,][E,B,] | [B,,B,]2 [D,B,][F,A,] B,2 [A,C][G,C] | [F,A,]6 B,[A,B,] | %5
 [B,D]2 B,B, B,2 [D,B,][D,B,] | [E,B,] [E,B,]3- [E,B,]2 [E,B,][E,B,] | %7
 [F,B,]2 [F,B,][F,B,] [F,C]2 [F,B,][F,A,] | [B,,B,]6 F,[F,G,] | %9
 [F,A,]2 [F,A,][F,A,] (A,C)[F,B,][F,A,] | [B,,B,]4 [B,,B,]2 [D,B,][F,A,] | B,2 B,B, B,2 B,B, | %12
 [F,A,]6 [F,B,][F,E] | [B,D]2 [B,D][B,D] [B,D]2 [F,A,]B, x8 | %14
 [E,B,] [E,B,]3- [E,B,]2 [E,B,][E,B,] | [F,B,]2 [F,C][F,C] (B,E)[F,D][F,C] |] [B,,D]6 |] %17
V:4
 x2 | x8 | x8 | x4 B,2 x2 | x6 B, x | x2 B,B, B,2 x2 | x8 | x8 | x6 F, x | x4 F,2 x2 | x8 | %11
 B,2 B,B, B,2 B,B, | x8 | x7 B, x8 | x8 | x4 F,2 x2 |] x6 |] %17

